**harm	**harte	**timestamp	**phrase	**leadinstrument	**kern
*M4/4	*M4/4	*	*	*	*
*D:	*D:	*	*	*	*D:
1r;	N	0	.	r	1r;
=1	=1	=1	=1	=1	=1
*>A_intro	*>A_intro	*>A_intro	*>A_intro	*>A_intro	*>A_intro
1I	D:maj	4.473	newline	guitar	1D 1f# 1a
=2	=2	=2	=2	=2	=2
1I	D:maj	6.169	.	guitar	1D 1f# 1a
=3	=3	=3	=3	=3	=3
1-VII	C:maj	7.865	.	guitar	1C 1e 1g
=4	=4	=4	=4	=4	=4
2IV	G:maj	9.561	.	guitar	2G 2b 2dd
2I	D:maj	10.41	.	guitar	2D 2f# 2a
=5	=5	=5	=5	=5	=5
1I	D:maj	11.258	newline	guitar	1D 1f# 1a
=6	=6	=6	=6	=6	=6
1I	D:maj	12.955	.	guitar	1D 1f# 1a
=7	=7	=7	=7	=7	=7
1-VII	C:maj	14.653	.	guitar	1C 1e 1g
=8	=8	=8	=8	=8	=8
2IV	G:maj	16.35	.	guitar	2G 2b 2dd
2I	D:maj	17.199	.	guitar	2D 2f# 2a
=9	=9	=9	=9	=9	=9
1I	D:maj	18.048	newline	guitar	1D 1f# 1a
=10	=10	=10	=10	=10	=10
1I	D:maj	19.756	.	guitar	1D 1f# 1a
=11	=11	=11	=11	=11	=11
1-VII	C:maj	21.465	.	guitar	1C 1e 1g
=12	=12	=12	=12	=12	=12
2IV	G:maj	23.173	.	guitar	2G 2b 2dd
2I	D:maj	24.027	.	guitar	2D 2f# 2a
=13	=13	=13	=13	=13	=13
*>A_verse	*>A_verse	*>A_verse	*>A_verse	*>A_verse	*>A_verse
1I	D:maj	24.881	newline	voice	1D 1f# 1a
=14	=14	=14	=14	=14	=14
1I	D:maj	26.607	.	voice	1D 1f# 1a
=15	=15	=15	=15	=15	=15
1-VII	C:maj	28.333	.	voice	1C 1e 1g
=16	=16	=16	=16	=16	=16
2IV	G:maj	30.059	.	voice	2G 2b 2dd
2I	D:maj	30.922	.	voice	2D 2f# 2a
=17	=17	=17	=17	=17	=17
1I	D:maj	31.785	newline	voice	1D 1f# 1a
=18	=18	=18	=18	=18	=18
1I	D:maj	33.5	.	voice	1D 1f# 1a
=19	=19	=19	=19	=19	=19
1-VII	C:maj	35.215	.	voice	1C 1e 1g
=20	=20	=20	=20	=20	=20
2IV	G:maj	36.929	.	voice	2G 2b 2dd
2I	D:maj	37.786	.	voice	2D 2f# 2a
=21	=21	=21	=21	=21	=21
*>B_prechorus	*>B_prechorus	*>B_prechorus	*>B_prechorus	*>B_prechorus	*>B_prechorus
1V	A:maj	38.644	newline	voice	1A 1cc# 1ee
=22	=22	=22	=22	=22	=22
1IV	G:maj	40.364	.	voice	1G 1b 1dd
=23	=23	=23	=23	=23	=23
1V	A:maj	42.085	.	voice	1A 1cc# 1ee
=24	=24	=24	=24	=24	=24
1IV	G:maj	43.806	.	voice	1G 1b 1dd
=25	=25	=25	=25	=25	=25
1V	A:maj	45.527	newline	voice	1A 1cc# 1ee
=26	=26	=26	=26	=26	=26
1IV	G:maj	47.229	.	voice	1G 1b 1dd
=27	=27	=27	=27	=27	=27
1V	A:maj	48.93	.	voice	1A 1cc# 1ee
=28	=28	=28	=28	=28	=28
1IV	G:maj	50.632	.	voice	1G 1b 1dd
=29	=29	=29	=29	=29	=29
*>C_chorus	*>C_chorus	*>C_chorus	*>C_chorus	*>C_chorus	*>C_chorus
2I	D:maj	52.334	newline	voice	2D 2f# 2a
2-VII	C:maj	53.197	.	voice	2C 2e 2g
=30	=30	=30	=30	=30	=30
1IV	G:maj	54.06	.	voice	1G 1b 1dd
=31	=31	=31	=31	=31	=31
2I	D:maj	55.786	.	voice	2D 2f# 2a
2-VII	C:maj	56.649	.	voice	2C 2e 2g
=32	=32	=32	=32	=32	=32
1IV	G:maj	57.512	.	voice	1G 1b 1dd
=33	=33	=33	=33	=33	=33
2I	D:maj	59.238	newline	voice	2D 2f# 2a
2-VII	C:maj	60.006	.	voice	2C 2e 2g
=34	=34	=34	=34	=34	=34
1IV	G:maj	60.774	.	voice	1G 1b 1dd
=35	=35	=35	=35	=35	=35
2I	D:maj	62.31	.	voice	2D 2f# 2a
4-VII	C:maj	63.079	.	voice	4C 4e 4g
4IV	G:maj	63.463	.	voice	4G 4b 4dd
=36	=36	=36	=36	=36	=36
1IV	G:maj	63.847	.	voice	1G 1b 1dd
1r;	N	65.383	.	r	1r;
=37	=37	=37	=37	=37	=37
*>A_trans	*>A_trans	*>A_trans	*>A_trans	*>A_trans	*>A_trans
1I	D:maj	66.92	newline	guitar	1D 1f# 1a
=38	=38	=38	=38	=38	=38
1I	D:maj	68.65	.	guitar	1D 1f# 1a
=39	=39	=39	=39	=39	=39
1-VII	C:maj	70.38	.	guitar	1C 1e 1g
=40	=40	=40	=40	=40	=40
2IV	G:maj	72.111	.	guitar	2G 2b 2dd
2I	D:maj	72.976	.	guitar	2D 2f# 2a
=41	=41	=41	=41	=41	=41
*>A_verse	*>A_verse	*>A_verse	*>A_verse	*>A_verse	*>A_verse
1I	D:maj	73.841	newline	voice	1D 1f# 1a
=42	=42	=42	=42	=42	=42
1I	D:maj	75.554	.	voice	1D 1f# 1a
=43	=43	=43	=43	=43	=43
1-VII	C:maj	77.268	.	voice	1C 1e 1g
=44	=44	=44	=44	=44	=44
2IV	G:maj	78.981	.	voice	2G 2b 2dd
2I	D:maj	79.838	.	voice	2D 2f# 2a
=45	=45	=45	=45	=45	=45
1I	D:maj	80.694	newline	voice	1D 1f# 1a
=46	=46	=46	=46	=46	=46
1I	D:maj	82.409	.	voice	1D 1f# 1a
=47	=47	=47	=47	=47	=47
1-VII	C:maj	84.123	.	voice	1C 1e 1g
=48	=48	=48	=48	=48	=48
2IV	G:maj	85.837	.	voice	2G 2b 2dd
2I	D:maj	86.695	.	voice	2D 2f# 2a
=49	=49	=49	=49	=49	=49
*>B_prechorus	*>B_prechorus	*>B_prechorus	*>B_prechorus	*>B_prechorus	*>B_prechorus
1V	A:maj	87.552	newline	voice	1A 1cc# 1ee
=50	=50	=50	=50	=50	=50
1IV	G:maj	89.273	.	voice	1G 1b 1dd
=51	=51	=51	=51	=51	=51
1V	A:maj	90.994	.	voice	1A 1cc# 1ee
=52	=52	=52	=52	=52	=52
1IV	G:maj	92.714	.	voice	1G 1b 1dd
=53	=53	=53	=53	=53	=53
1V	A:maj	94.435	newline	voice	1A 1cc# 1ee
=54	=54	=54	=54	=54	=54
1IV	G:maj	96.145	.	voice	1G 1b 1dd
=55	=55	=55	=55	=55	=55
1V	A:maj	97.854	.	voice	1A 1cc# 1ee
=56	=56	=56	=56	=56	=56
1IV	G:maj	99.564	.	voice	1G 1b 1dd
=57	=57	=57	=57	=57	=57
*>C_chorus	*>C_chorus	*>C_chorus	*>C_chorus	*>C_chorus	*>C_chorus
2I	D:maj	101.273	newline	voice	2D 2f# 2a
2-VII	C:maj	102.135	.	voice	2C 2e 2g
=58	=58	=58	=58	=58	=58
1IV	G:maj	102.997	.	voice	1G 1b 1dd
=59	=59	=59	=59	=59	=59
2I	D:maj	104.72	.	voice	2D 2f# 2a
2-VII	C:maj	105.582	.	voice	2C 2e 2g
=60	=60	=60	=60	=60	=60
1IV	G:maj	106.443	.	voice	1G 1b 1dd
=61	=61	=61	=61	=61	=61
2I	D:maj	108.167	newline	voice	2D 2f# 2a
2-VII	C:maj	109.019	.	voice	2C 2e 2g
=62	=62	=62	=62	=62	=62
1IV	G:maj	109.871	.	voice	1G 1b 1dd
=63	=63	=63	=63	=63	=63
2I	D:maj	111.576	.	voice	2D 2f# 2a
4-VII	C:maj	112.428	.	voice	4C 4e 4g
4IV	G:maj	112.854	.	voice	4G 4b 4dd
=64	=64	=64	=64	=64	=64
1IV	G:maj	113.281	.	voice	1G 1b 1dd
=65	=65	=65	=65	=65	=65
*>A2_trans	*>A2_trans	*>A2_trans	*>A2_trans	*>A2_trans	*>A2_trans
1I	D:maj	114.985	newline	guitar	1D 1f# 1a
=66	=66	=66	=66	=66	=66
1I	D:maj	116.731	.	guitar	1D 1f# 1a
=67	=67	=67	=67	=67	=67
*>D_bridge	*>D_bridge	*>D_bridge	*>D_bridge	*>D_bridge	*>D_bridge
1IV	G:maj	118.476	newline	voice	1G 1b 1dd
=68	=68	=68	=68	=68	=68
1IV	G:maj	120.183	.	voice	1G 1b 1dd
=69	=69	=69	=69	=69	=69
1IV	G:maj	121.89	.	voice	1G 1b 1dd
=70	=70	=70	=70	=70	=70
1IV	G:maj	123.597	.	voice	1G 1b 1dd
=71	=71	=71	=71	=71	=71
1V	A:maj	125.305	newline	voice	1A 1cc# 1ee
=72	=72	=72	=72	=72	=72
1V	A:maj	127.022	.	voice	1A 1cc# 1ee
=73	=73	=73	=73	=73	=73
1V	A:maj	128.739	.	voice	1A 1cc# 1ee
=74	=74	=74	=74	=74	=74
1V	A:maj	130.456	.	voice	1A 1cc# 1ee
=75	=75	=75	=75	=75	=75
*>E_solo	*>E_solo	*>E_solo	*>E_solo	*>E_solo	*>E_solo
2I	D:maj	132.173	newline	guitar	2D 2f# 2a
2-VII	C:maj	133.034	.	guitar	2C 2e 2g
=76	=76	=76	=76	=76	=76
1IV	G:maj	133.895	.	guitar	1G 1b 1dd
=77	=77	=77	=77	=77	=77
2I	D:maj	135.616	.	guitar	2D 2f# 2a
2-VII	C:maj	136.477	.	guitar	2C 2e 2g
=78	=78	=78	=78	=78	=78
1IV	G:maj	137.338	.	guitar	1G 1b 1dd
=79	=79	=79	=79	=79	=79
2I	D:maj	139.059	newline	guitar	2D 2f# 2a
2-VII	C:maj	139.919	.	guitar	2C 2e 2g
=80	=80	=80	=80	=80	=80
1IV	G:maj	140.779	.	guitar	1G 1b 1dd
=81	=81	=81	=81	=81	=81
2I	D:maj	142.498	.	guitar	2D 2f# 2a
2-VII	C:maj	143.358	.	guitar	2C 2e 2g
=82	=82	=82	=82	=82	=82
1IV	G:maj	144.217	newline	guitar	1G 1b 1dd
=83	=83	=83	=83	=83	=83
1IV	G:maj	145.932	.	guitar	1G 1b 1dd
=84	=84	=84	=84	=84	=84
1IV	G:maj	147.646	.	guitar	1G 1b 1dd
=85	=85	=85	=85	=85	=85
1IV	G:maj	149.361	.	guitar	1G 1b 1dd
=86	=86	=86	=86	=86	=86
1V	A:maj	151.075	newline	guitar	1A 1cc# 1ee
=87	=87	=87	=87	=87	=87
1V	A:maj	152.364	.	guitar	1A 1cc# 1ee
=88	=88	=88	=88	=88	=88
1V	A:maj	153.653	.	guitar	1A 1cc# 1ee
=89	=89	=89	=89	=89	=89
1V	A:maj	154.942	.	guitar	1A 1cc# 1ee
=90	=90	=90	=90	=90	=90
1V	A:maj	156.231	newline	guitar	1A 1cc# 1ee
=91	=91	=91	=91	=91	=91
1V	A:maj	157.963	.	guitar	1A 1cc# 1ee
=92	=92	=92	=92	=92	=92
1V	A:maj	159.694	.	guitar	1A 1cc# 1ee
=93	=93	=93	=93	=93	=93
1V	A:maj	161.425	.	guitar	1A 1cc# 1ee
=94	=94	=94	=94	=94	=94
*>C_chorus	*>C_chorus	*>C_chorus	*>C_chorus	*>C_chorus	*>C_chorus
2I	D:maj	163.157	newline	guitar	2D 2f# 2a
2-VII	C:maj	164.006	.	guitar	2C 2e 2g
=95	=95	=95	=95	=95	=95
1IV	G:maj	164.856	.	guitar	1G 1b 1dd
=96	=96	=96	=96	=96	=96
2I	D:maj	166.555	.	guitar	2D 2f# 2a
2-VII	C:maj	167.405	.	guitar	2C 2e 2g
=97	=97	=97	=97	=97	=97
1IV	G:maj	168.254	.	guitar	1G 1b 1dd
=98	=98	=98	=98	=98	=98
2I	D:maj	169.953	newline	guitar	2D 2f# 2a
2-VII	C:maj	170.728	.	guitar	2C 2e 2g
=99	=99	=99	=99	=99	=99
1IV	G:maj	171.503	.	guitar	1G 1b 1dd
=100	=100	=100	=100	=100	=100
2I	D:maj	173.053	.	guitar	2D 2f# 2a
4-VII	C:maj	173.828	.	guitar	4C 4e 4g
4IV	G:maj	174.215	.	guitar	4G 4b 4dd
=101	=101	=101	=101	=101	=101
1IV	G:maj	174.603	.	guitar	1G 1b 1dd
1r;	N	176.152	.	r	1r;
=102	=102	=102	=102	=102	=102
1IV	G:1	177.702	newline	voice	1G 1b 1dd
=103	=103	=103	=103	=103	=103
1I	D:1	180.947	.	voice	1D 1f# 1a
=104	=104	=104	=104	=104	=104
*>A_verse	*>A_verse	*>A_verse	*>A_verse	*>A_verse	*>A_verse
1I	D:maj	184.191	newline	guitar	1D 1f# 1a
=105	=105	=105	=105	=105	=105
1I	D:maj	185.903	.	guitar	1D 1f# 1a
=106	=106	=106	=106	=106	=106
1-VII	C:maj	187.615	.	guitar	1C 1e 1g
=107	=107	=107	=107	=107	=107
2IV	G:maj	189.327	.	guitar	2G 2b 2dd
2I	D:maj	190.183	.	guitar	2D 2f# 2a
=108	=108	=108	=108	=108	=108
1I	D:maj	191.039	newline	guitar	1D 1f# 1a
=109	=109	=109	=109	=109	=109
1I	D:maj	192.752	.	guitar	1D 1f# 1a
=110	=110	=110	=110	=110	=110
1-VII	C:maj	194.465	.	guitar	1C 1e 1g
=111	=111	=111	=111	=111	=111
2IV	G:maj	196.178	.	guitar	2G 2b 2dd
2I	D:maj	197.034	.	guitar	2D 2f# 2a
=112	=112	=112	=112	=112	=112
1I	D:maj	197.891	newline	guitar	1D 1f# 1a
=113	=113	=113	=113	=113	=113
1I	D:maj	199.609	.	guitar	1D 1f# 1a
=114	=114	=114	=114	=114	=114
1-VII	C:maj	201.327	.	guitar	1C 1e 1g
=115	=115	=115	=115	=115	=115
2IV	G:maj	203.045	.	guitar	2G 2b 2dd
2I	D:maj	203.904	.	guitar	2D 2f# 2a
=116	=116	=116	=116	=116	=116
1v	A:min	204.763	newline	guitar	1A 1cc 1ee
=117	=117	=117	=117	=117	=117
1v	A:min	206.482	.	guitar	1A 1cc 1ee
=118	=118	=118	=118	=118	=118
1-VII	C:maj	208.201	.	guitar	1C 1e 1g
=119	=119	=119	=119	=119	=119
2IV	G:maj	209.92	.	guitar	2G 2b 2dd
2I	D:maj	210.78	.	guitar	2D 2f# 2a
=120	=120	=120	=120	=120	=120
1-VII	C:maj	211.639	.	guitar	1C 1e 1g
=121	=121	=121	=121	=121	=121
1-VII	C:maj	213.359	.	guitar	1C 1e 1g
=122	=122	=122	=122	=122	=122
*>C_chorus	*>C_chorus	*>C_chorus	*>C_chorus	*>C_chorus	*>C_chorus
2I	D:maj	215.078	newline	guitar	2D 2f# 2a
2-VII	C:maj	215.932	.	guitar	2C 2e 2g
=123	=123	=123	=123	=123	=123
1IV	G:maj	216.786	.	guitar	1G 1b 1dd
=124	=124	=124	=124	=124	=124
2I	D:maj	218.495	.	guitar	2D 2f# 2a
2-VII	C:maj	219.349	.	guitar	2C 2e 2g
=125	=125	=125	=125	=125	=125
1IV	G:maj	220.203	.	guitar	1G 1b 1dd
=126	=126	=126	=126	=126	=126
2I	D:maj	221.912	newline	guitar	2D 2f# 2a
2-VII	C:maj	222.778	.	guitar	2C 2e 2g
=127	=127	=127	=127	=127	=127
1IV	G:maj	223.643	.	guitar	1G 1b 1dd
=128	=128	=128	=128	=128	=128
2I	D:maj	225.374	.	guitar	2D 2f# 2a
2-VII	C:maj	226.24	.	guitar	2C 2e 2g
=129	=129	=129	=129	=129	=129
1IV	G:maj	227.106	.	guitar	1G 1b 1dd
=130	=130	=130	=130	=130	=130
2I	D:maj	228.837	newline	guitar	2D 2f# 2a
2-VII	C:maj	229.695	.	guitar	2C 2e 2g
=131	=131	=131	=131	=131	=131
1IV	G:maj	230.553	.	guitar	1G 1b 1dd
=132	=132	=132	=132	=132	=132
2I	D:maj	232.269	.	guitar	2D 2f# 2a
2-VII	C:maj	233.128	.	guitar	2C 2e 2g
=133	=133	=133	=133	=133	=133
1IV	G:maj	233.986	.	guitar	1G 1b 1dd
=134	=134	=134	=134	=134	=134
2I	D:maj	235.702	newline	guitar	2D 2f# 2a
2-VII	C:maj	236.554	.	guitar	2C 2e 2g
=135	=135	=135	=135	=135	=135
1IV	G:maj	237.406	.	guitar	1G 1b 1dd
=136	=136	=136	=136	=136	=136
2I	D:maj	239.11	.	guitar	2D 2f# 2a
2-VII	C:maj	239.962	.	guitar	2C 2e 2g
=137	=137	=137	=137	=137	=137
1IV	G:maj	240.814	.	guitar	1G 1b 1dd
=138	=138	=138	=138	=138	=138
2I	D:maj	242.518	newline	guitar	2D 2f# 2a
2-VII	C:maj	243.387	.	guitar	2C 2e 2g
=139	=139	=139	=139	=139	=139
1IV	G:maj	244.255	.	guitar	1G 1b 1dd
=140	=140	=140	=140	=140	=140
2I	D:maj	245.993	.	guitar	2D 2f# 2a
2-VII	C:maj	246.861	.	guitar	2C 2e 2g
=141	=141	=141	=141	=141	=141
1IV	G:maj	247.73	.	guitar	1G 1b 1dd
=142	=142	=142	=142	=142	=142
*>_fadeout	*>_fadeout	*>_fadeout	*>_fadeout	*>_fadeout	*>_fadeout
2I	D:maj	249.467	newline	guitar	2D 2f# 2a
2-VII	C:maj	250.32	.	guitar	2C 2e 2g
=143	=143	=143	=143	=143	=143
1IV	G:maj	251.173	.	guitar	1G 1b 1dd
=144	=144	=144	=144	=144	=144
2I	D:maj	252.878	.	guitar	2D 2f# 2a
2-VII	C:maj	253.731	.	guitar	2C 2e 2g
=145	=145	=145	=145	=145	=145
1IV	G:maj	254.584	.	guitar	1G 1b 1dd
=146	=146	=146	=146	=146	=146
2I	D:maj	256.29	newline	guitar	2D 2f# 2a
2-VII	C:maj	257.155	.	guitar	2C 2e 2g
=147	=147	=147	=147	=147	=147
1IV	G:maj	258.02	.	guitar	1G 1b 1dd
=148	=148	=148	=148	=148	=148
2I	D:maj	259.75	.	guitar	2D 2f# 2a
2-VII	C:maj	260.615	.	guitar	2C 2e 2g
=149	=149	=149	=149	=149	=149
1IV	G:maj	261.48	.	guitar	1G 1b 1dd
=150	=150	=150	=150	=150	=150
2I	D:maj	263.209	newline	guitar	2D 2f# 2a
2-VII	C:maj	263.754	.	guitar	2C 2e 2g
=151	=151	=151	=151	=151	=151
1IV	G:maj	264.298	.	guitar	1G 1b 1dd
=152	=152	=152	=152	=152	=152
2I	D:maj	265.386	.	guitar	2D 2f# 2a
2-VII	C:maj	265.931	.	guitar	2C 2e 2g
=153	=153	=153	=153	=153	=153
1IV	G:maj	266.475	.	guitar	1G 1b 1dd
1r;	N	267.564	.	r	1r;
1r;	N	271.36	.	r	1r;
*-	*-	*-	*-	*-	*-
!!!OTL: Drivin' Wheel
!!!COC: Foghat
!!!BillboardChartDate: 1977/01/29, 1976/12/04
!!!BillboardPeak: 34, 34
!!!BillboardWeeksOnChart: 10, 10
!!!SampleTargetRank: 56, 65
!!!SampleActualRank: 54, 65
!!!SampleID#: 75, 95
!!!RDF**harmony: **recip + pitch class of root + harmonic quality
!!!RDF**harte: Chris Harte's syntax, used by MIREX
!!!RDF**phrase: newline = linebreak in original McGill transcription
!!!RDF**timestamp: McGill audio timestamp in seconds
!!!RDF**leadinstrument: original McGill primary instrumentation annotation
!!!RDT: 2017/01/12/
!!!ENC: Nathaniel Condit-Schultz
!!!EST: Awating manual error checking and editing.
